icons/lines/notification-favorite.svg

<svg xmlns="http://www.w3.org/2000/svg" width="24" height="24" viewBox="0 0 24 24" fill="none" stroke="currentColor" stroke-width="2" stroke-linecap="round" stroke-linejoin="round" >
  <path d="M19 8C20.6569 8 22 6.65685 22 5C22 3.34315 20.6569 2 19 2C17.3431 2 16 3.34315 16 5C16 6.65685 17.3431 8 19 8Z"/>
  <path d="M14 2H9C4 2 2 4 2 9V15C2 20 4 22 9 22H15C20 22 22 20 22 15V10"/>
  <path d="M6.81046 14.93C6.46046 13.83 6.87046 12.46 8.03046 12.09C8.64046 11.89 9.39046 12.06 9.82046 12.65C10.2205 12.04 11.0005 11.9 11.6005 12.09C12.7605 12.46 13.1705 13.83 12.8205 14.93C12.2705 16.68 10.3505 17.59 9.82046 17.59C9.28046 17.58 7.38046 16.69 6.81046 14.93Z"/>
  </svg>

<svg xmlns="http://www.w3.org/2000/svg" width="24" height="24" viewBox="0 0 24 24" fill="none" stroke="currentColor" stroke-width="2" stroke-linecap="round" stroke-linejoin="round">
  <path d="M14 2H9C4 2 2 4 2 9v6c0 5 2 7 7 7h6c5 0 7-2 7-7v-5" />
  <path d="M6.81 14.93c-.35-1.1.06-2.47 1.22-2.84.61-.2 1.36-.03 1.79.56.4-.61 1.18-.75 1.78-.56 1.16.37 1.57 1.74 1.22 2.84-.55 1.75-2.47 2.66-3 2.66-.54-.01-2.44-.9-3.01-2.66" />
  <circle cx="19" cy="5" r="3" />
</svg>
